static/assets/template/assets/img/icons/essential/detailed/Log_Out.svg

<svg height="149" viewBox="0 0 103 149" width="103" xmlns="http://www.w3.org/2000/svg"><g fill="none" fill-rule="evenodd" transform="translate(2 2)"><g fill-rule="nonzero"><path d="m75.6 118.1h-68c-4 0-7.2-3.2-7.2-7.2v-103.3c0-4 3.2-7.2 7.2-7.2h68c4.9 0 9 4 9 9v99.7c0 5-4.1 9-9 9z"/><path d="m84.6 9.4v99.7c0 4.9-4 9-9 9h-68c-.7 0-1.4-.1-2-.3-3-.9-5.1-3.6-5.1-6.9v-103.3c0-4 3.2-7.2 7.2-7.2h68c4.8 0 8.9 4.1 8.9 9z"/><path d="m84.6 10.6v98.5c0 4.9-4 9-9 9h-68c-.7 0-1.4-.1-2-.3v-100.8c0-4 3.2-7.2 7.2-7.2h68c1.3 0 2.6.3 3.8.8z"/></g><path d="m37.4 118.1h-29.8c-4 0-7.2-3.2-7.2-7.2v-103.3c0-4 3.2-7.2 7.2-7.2h68c4.9 0 9 4 9 9v23.5" stroke-linecap="round" stroke-linejoin="round" stroke-width="3.2"/><path d="m84.6 84.6v24.5c0 4.9-4 9-9 9h-29" stroke-linecap="round" stroke-linejoin="round" stroke-width="3.2"/><path d="m32.2 144.3-27.6-23.8c-2.6-2.2-4.1-5.5-4.1-8.9v-106.4c0-2.3 2.7-3.6 4.5-2l30.1 25.9c2.1 1.8 3.3 4.4 3.3 7.2v105.1c-.1 3.3-3.8 5-6.2 2.9z" fill-rule="nonzero"/><path d="m32.2 144.4-27.6-22.9c-2.6-2.1-4.1-5.3-4.1-8.5v-102.5c0-2.2 2.7-3.4 4.5-2l30.1 26.3c2.1 1.7 3.3 4.3 3.3 6.9v100c-.1 3-3.8 4.7-6.2 2.7z" fill-rule="nonzero"/><path d="m30.9 25.6 4.1 3.6c2.1 1.8 3.3 4.4 3.3 7.2v105.1c0 3.2-3.7 4.9-6.2 2.8l-27.6-23.8c-2.6-2.2-4.1-5.5-4.1-8.9v-106.4c0-2.3 2.7-3.6 4.5-2l12.4 10.6" stroke-linecap="round" stroke-linejoin="round" stroke-width="3.2"/><path d="m20.9 17 .3.3" stroke-linecap="round" stroke-linejoin="round" stroke-width="3.2"/><g fill-rule="nonzero" transform="translate(47 38)"><path d="m33.2 40c-1.5 0-3-.6-4.1-1.7s-1.7-2.5-1.7-4.1c0-1.5.6-3 1.7-4.1l3.2-3.2h-24.3c-3.2 0-5.7-2.6-5.7-5.7 0-3.2 2.6-5.7 5.7-5.7h24.4l-3.2-3.2c-1.1-1.1-1.7-2.5-1.7-4.1 0-1.5.6-3 1.7-4.1s2.5-1.7 4.1-1.7 3 .6 4.1 1.7l13 13c1.1 1.1 1.7 2.5 1.7 4.1 0 1.5-.6 3-1.7 4.1l-13 13c-1.3 1.1-2.7 1.7-4.2 1.7z"/><path d="m33.2 4.1c1.1 0 2.1.4 2.9 1.2l13 13c.8.8 1.2 1.8 1.2 2.9s-.4 2.2-1.2 2.9l-13 13c-.8.8-1.9 1.2-2.9 1.2-1.1 0-2.1-.4-2.9-1.2-1.6-1.6-1.6-4.2 0-5.9l6-6h-28.3c-2.3 0-4.1-1.9-4.1-4.1 0-2.3 1.9-4.1 4.1-4.1h28.2l-6-6c-1.6-1.6-1.6-4.2 0-5.9.8-.6 1.9-1 3-1zm0-3.2c-2 0-3.8.8-5.2 2.2s-2.2 3.2-2.2 5.2.8 3.8 2.2 5.2l.5.5h-20.5c-4 0-7.3 3.3-7.3 7.3s3.3 7.3 7.3 7.3h20.5l-.5.5c-2.9 2.9-2.9 7.5 0 10.4 1.4 1.4 3.2 2.2 5.2 2.2s3.8-.8 5.2-2.2l13-13c1.4-1.4 2.2-3.2 2.2-5.2s-.8-3.8-2.2-5.2l-13-13c-1.4-1.5-3.3-2.2-5.2-2.2z"/></g></g></svg>

<?xml version="1.0" encoding="UTF-8"?>
<svg width="103px" height="149px" viewBox="0 0 103 149" version="1.1" xmlns="http://www.w3.org/2000/svg" xmlns:xlink="http://www.w3.org/1999/xlink">
    <!-- Generator: Sketch 51.2 (57519) - http://www.bohemiancoding.com/sketch -->
    <title>Log_Out</title>
    <desc>Created with Sketch.</desc>
    <defs></defs>
    <g id="Page-1" stroke="none" stroke-width="1" fill="none" fill-rule="evenodd">
        <g id="Log_Out" transform="translate(2.000000, 2.000000)">
            <path d="M75.6,118.1 L7.6,118.1 C3.6,118.1 0.4,114.9 0.4,110.9 L0.4,7.6 C0.4,3.6 3.6,0.4 7.6,0.4 L75.6,0.4 C80.5,0.4 84.6,4.4 84.6,9.4 L84.6,109.1 C84.6,114.1 80.5,118.1 75.6,118.1 Z" id="Shape" class="fill-neutral" fill-rule="nonzero"></path>
            <path d="M84.6,9.4 L84.6,109.1 C84.6,114 80.6,118.1 75.6,118.1 L7.6,118.1 C6.9,118.1 6.2,118 5.6,117.8 C2.6,116.9 0.5,114.2 0.5,110.9 L0.5,7.6 C0.5,3.6 3.7,0.4 7.7,0.4 L75.7,0.4 C80.5,0.4 84.6,4.5 84.6,9.4 Z" id="Shape" class="fill-primary-500" fill-rule="nonzero"></path>
            <path d="M84.6,10.6 L84.6,109.1 C84.6,114 80.6,118.1 75.6,118.1 L7.6,118.1 C6.9,118.1 6.2,118 5.6,117.8 L5.6,17 C5.6,13 8.8,9.8 12.8,9.8 L80.8,9.8 C82.1,9.8 83.4,10.1 84.6,10.6 Z" id="Shape" class="fill-primary-300" fill-rule="nonzero"></path>
            <path d="M37.4,118.1 L7.6,118.1 C3.6,118.1 0.4,114.9 0.4,110.9 L0.4,7.6 C0.4,3.6 3.6,0.4 7.6,0.4 L75.6,0.4 C80.5,0.4 84.6,4.4 84.6,9.4 L84.6,32.9" id="Shape" class="stroke-primary" stroke-width="3.2" stroke-linecap="round" stroke-linejoin="round"></path>
            <path d="M84.6,84.6 L84.6,109.1 C84.6,114 80.6,118.1 75.6,118.1 L46.6,118.1" id="Shape" class="stroke-primary" stroke-width="3.2" stroke-linecap="round" stroke-linejoin="round"></path>
            <path d="M32.2,144.3 L4.6,120.5 C2,118.3 0.5,115 0.5,111.6 L0.5,5.2 C0.5,2.9 3.2,1.6 5,3.2 L35.1,29.1 C37.2,30.9 38.4,33.5 38.4,36.3 L38.4,141.4 C38.3,144.7 34.6,146.4 32.2,144.3 Z" id="Shape" class="fill-neutral" fill-rule="nonzero"></path>
            <path d="M32.2,144.4 L4.6,121.5 C2,119.4 0.5,116.2 0.5,113 L0.5,10.5 C0.5,8.3 3.2,7.1 5,8.5 L35.1,34.8 C37.2,36.5 38.4,39.1 38.4,41.7 L38.4,141.7 C38.3,144.7 34.6,146.4 32.2,144.4 Z" id="Shape" class="fill-primary-100" fill-rule="nonzero"></path>
            <path d="M30.9,25.6 L35,29.2 C37.1,31 38.3,33.6 38.3,36.4 L38.3,141.5 C38.3,144.7 34.6,146.4 32.1,144.3 L4.5,120.5 C1.9,118.3 0.4,115 0.4,111.6 L0.4,5.2 C0.4,2.9 3.1,1.6 4.9,3.2 L17.3,13.8" id="Shape" class="stroke-primary" stroke-width="3.2" stroke-linecap="round" stroke-linejoin="round"></path>
            <path d="M20.9,17 L21.2,17.3" id="Shape" class="stroke-primary" stroke-width="3.2" stroke-linecap="round" stroke-linejoin="round"></path>
            <g id="Group" transform="translate(47.000000, 38.000000)" fill-rule="nonzero">
                <path d="M33.2,40 C31.7,40 30.2,39.4 29.1,38.3 C28,37.2 27.4,35.8 27.4,34.2 C27.4,32.7 28,31.2 29.1,30.1 L32.3,26.9 L8,26.9 C4.8,26.9 2.3,24.3 2.3,21.2 C2.3,18 4.9,15.5 8,15.5 L32.4,15.5 L29.2,12.3 C28.1,11.2 27.5,9.8 27.5,8.2 C27.5,6.7 28.1,5.2 29.2,4.1 C30.3,3 31.7,2.4 33.3,2.4 C34.9,2.4 36.3,3 37.4,4.1 L50.4,17.1 C51.5,18.2 52.1,19.6 52.1,21.2 C52.1,22.7 51.5,24.2 50.4,25.3 L37.4,38.3 C36.1,39.4 34.7,40 33.2,40 Z" id="Shape" class="fill-neutral"></path>
                <path d="M33.2,4.1 C34.3,4.1 35.3,4.5 36.1,5.3 L49.1,18.3 C49.9,19.1 50.3,20.1 50.3,21.2 C50.3,22.3 49.9,23.4 49.1,24.1 L36.1,37.1 C35.3,37.9 34.2,38.3 33.2,38.3 C32.1,38.3 31.1,37.9 30.3,37.1 C28.7,35.5 28.7,32.9 30.3,31.2 L36.3,25.2 L8,25.2 C5.7,25.2 3.9,23.3 3.9,21.1 C3.9,18.8 5.8,17 8,17 L36.2,17 L30.2,11 C28.6,9.4 28.6,6.8 30.2,5.1 C31,4.5 32.1,4.1 33.2,4.1 Z M33.2,0.9 C31.2,0.9 29.4,1.7 28,3.1 C26.6,4.5 25.8,6.3 25.8,8.3 C25.8,10.3 26.6,12.1 28,13.5 L28.5,14 L8,14 C4,14 0.7,17.3 0.7,21.3 C0.7,25.3 4,28.6 8,28.6 L28.5,28.6 L28,29.1 C25.1,32 25.1,36.6 28,39.5 C29.4,40.9 31.2,41.7 33.2,41.7 C35.2,41.7 37,40.9 38.4,39.5 L51.4,26.5 C52.8,25.1 53.6,23.3 53.6,21.3 C53.6,19.3 52.8,17.5 51.4,16.1 L38.4,3.1 C37,1.6 35.1,0.9 33.2,0.9 Z" id="Shape" class="fill-primary"></path>
            </g>
        </g>
    </g>
</svg>
